icon-svg/systenair.svg

<svg xmlns="http://www.w3.org/2000/svg" fill="#44739e" viewBox="0 0 24 24"><path d="M6.442 6.65A1.245 1.245 0 0 0 8.121 6l.013-.031a1.276 1.276 0 0 0-.7-1.664 1.242 1.242 0 0 0-1.658.7.9.9 0 0 0-.035.083 1.207 1.207 0 0 0 .701 1.562m-.569 5.905a.9193.9193 0 1 0-.717 1.693.917.917 0 0 0 1.2-.487.919.919 0 0 0-.483-1.206M8.865 4.93a1.331 1.331 0 0 0 1.8-.694l.015-.035a1.366 1.366 0 0 0-.748-1.782 1.334 1.334 0 0 0-1.778.75c-.012.027-.024.055-.035.083a1.3 1.3 0 0 0 .746 1.678M4.9 9.018l.037.016A1.175 1.175 0 0 0 6.476 8.4l.015-.035a1.2 1.2 0 0 0-.66-1.559L5.8 6.8a1.176 1.176 0 0 0-1.528.661 1 1 0 0 0-.025.058A1.157 1.157 0 0 0 4.9 9.018m3.91 2.037-.01-.032a1.038 1.038 0 0 0-1.325-.634l-.045.016a1.016 1.016 0 0 0-.59 1.31c.008.025.016.049.025.074a.989.989 0 0 0 1.274.575v-.011l.041-.013a1.013 1.013 0 0 0 .63-1.285M9.2 8.4l-.006-.02a1.084 1.084 0 0 0-1.382-.664l-.049.017A1.056 1.056 0 0 0 7.151 9.1q.011.036.024.072a1.028 1.028 0 0 0 1.324.6l.048-.015A1.056 1.056 0 0 0 9.2 8.4m2.755-3.835a1.346 1.346 0 0 0 1.818-.7l.013-.032a1.382 1.382 0 0 0-.759-1.8 1.341 1.341 0 0 0-1.791.759c-.013.028-.026.057-.037.086a1.311 1.311 0 0 0 .756 1.687m.794 11.735a.723.723 0 0 0 .573.033h.006l.035-.011a.744.744 0 0 0 .46-.946l-.007-.021a.762.762 0 0 0-.972-.465l-.038.013a.742.742 0 0 0-.427.958.72.72 0 0 0 .37.439m-6.895-5.177a1.127 1.127 0 1 0-1.489.6l.031.013a1.119 1.119 0 0 0 1.458-.613M9.705 5.75c-.017.006-.033.011-.049.018a1.077 1.077 0 0 0-.625 1.39q.01.036.024.072a1.049 1.049 0 0 0 1.35.612l.05-.016a1.077 1.077 0 0 0 .668-1.368l-.01-.028a1.106 1.106 0 0 0-1.408-.68m4.982 10.961a.623.623 0 0 0-.006 1.152.608.608 0 0 0 .477.006.626.626 0 0 0 .342-.815.623.623 0 0 0-.813-.343m.689-2.423a.622.622 0 1 0-.076 1.146h.016a.613.613 0 0 0 .374-.782.625.625 0 0 0-.314-.364m3.636-.614a.34.34 0 0 0 .024-.075.389.389 0 0 0-.3-.46.33.33 0 0 0-.076-.008.389.389 0 0 0-.151.749.381.381 0 0 0 .506-.206zm-1.604 1.537a.5.5 0 0 0-.3.948h.006a.491.491 0 0 0 .643-.262.55.55 0 0 0 .03-.095.5.5 0 0 0-.379-.591m-6.439.924.038-.012a.862.862 0 0 0 .536-1.1l-.006-.019a.886.886 0 0 0-1.128-.543l-.042.015a.86.86 0 0 0-.5 1.111.839.839 0 0 0 1.1.549zM9.05 14.8l.046-.015a.971.971 0 0 0 .6-1.235l-.008-.026a1 1 0 0 0-1.271-.612l-.044.016a.972.972 0 0 0-.564 1.254c.006.021.013.041.02.061a.947.947 0 0 0 1.221.557m-1.724.151-.033-.013a.758.758 0 0 0-.979.442.737.737 0 0 0 .405 1 .759.759 0 0 0 1.025-.389.777.777 0 0 0-.418-1.039Zm4.806 2.181a.682.682 0 1 0 .619.944.7.7 0 0 0 .054-.259.679.679 0 0 0-.673-.685m-2.105.368a.747.747 0 1 0-.98.394.748.748 0 0 0 .982-.394Zm4.959-12.06.026.011a1.372 1.372 0 0 0 1.788-.745 1.387 1.387 0 0 0-2.55-1.084l-.01.024a1.374 1.374 0 0 0 .746 1.794M16.4 8.8a.382.382 0 0 0 .244-.49.389.389 0 1 0-.244.49m.353.67a.3894.3894 0 1 0 .252.737.35.35 0 0 0 .132-.074.381.381 0 0 0 .112-.415v-.006a.389.389 0 0 0-.496-.242m-.198 4.359a.5.5 0 0 0-.314-.943h-.012a.5.5 0 1 0 .326.939zm2.339-4.895a.387.387 0 0 0 .53-.281.389.389 0 1 0-.53.281m.04 1.93a.39.39 0 0 0 .211.509.383.383 0 0 0 .3.006.38.38 0 0 0 .211-.21.389.389 0 1 0-.716-.3zm-2.167.469a.3893.3893 0 0 0 .251.737h.011a.382.382 0 0 0 .233-.487.389.389 0 0 0-.495-.25m1.164-4.648a.383.383 0 0 0 .3.006.377.377 0 0 0 .21-.21.39.39 0 1 0-.51.209zm-3.696 5.909a.5.5 0 0 0 .7.105.512.512 0 0 0 .1-.7.5.5 0 1 0-.8.591zm-.956.355a.5.5 0 1 0 .591.8.5.5 0 0 0 .1-.7.5.5 0 0 0-.691-.1m-2.165.167a.729.729 0 0 0 .146-1.02l-.012-.017a.749.749 0 0 0-1.049-.141l-.022.017a.728.728 0 0 0-.116 1.022l.029.039a.71.71 0 0 0 1 .115zm-.303-1.792a.85.85 0 0 0 .167-1.191l-.012-.017a.875.875 0 0 0-1.225-.167l-.034.026a.851.851 0 0 0-.128 1.2c.011.015.022.031.034.046a.827.827 0 0 0 1.164.131zm3.006-5.34-.009-.026a1.124 1.124 0 0 0-1.431-.692l-.049.017a1.093 1.093 0 0 0-.635 1.411q.01.036.024.072a1.064 1.064 0 0 0 1.37.624l.047-.015a1.1 1.1 0 0 0 .683-1.391m-1.399 7.961a.622.622 0 1 0-.87-.13.626.626 0 0 0 .87.13m.782-5.384a.311.311 0 1 0 .37.5.321.321 0 0 0 .065-.436.311.311 0 0 0-.435-.064m-1.223 1.062.034-.025a.9.9 0 0 0 .179-1.258l-.015-.019a.92.92 0 0 0-1.291-.175l-.047.035a.9.9 0 0 0-.125 1.263c.012.016.024.033.037.048a.873.873 0 0 0 1.228.135zm2.676.309a.322.322 0 0 0 .063-.435.312.312 0 1 0-.062.436zm.554.752a.373.373 0 1 0-.077.521.39.39 0 0 0 .077-.521m.136-3.084h.008a.383.383 0 0 0 .238-.487.39.39 0 1 0-.246.493ZM6.916 20.654a2.4 2.4 0 0 0-.073.263h-.007a2 2 0 0 0-.069-.263l-.541-1.524h-.234l.742 1.97-.3.786h.223l1.03-2.755h-.23zm10.892-1.524h.403v1.969h-.403zm-1.234-.039a1.84 1.84 0 0 0-.687.139l.1.274a1.46 1.46 0 0 1 .545-.121c.252 0 .416.088.416.336v.126c-.595.031-1.18.131-1.18.679 0 .387.285.617.851.617A1.73 1.73 0 0 0 17.33 21v-1.24c0-.486-.285-.669-.756-.669m.376 1.709a1.02 1.02 0 0 1-.34.051c-.3 0-.464-.128-.464-.336 0-.351.4-.384.8-.407zm-11.839-.792c-.241-.092-.42-.168-.42-.407 0-.183.154-.332.42-.332a.807.807 0 0 1 .42.12l.084-.161A1.01 1.01 0 0 0 5.1 19.1c-.4 0-.626.223-.626.507 0 .34.252.461.544.57.256.094.446.183.446.42s-.194.365-.482.365a1.06 1.06 0 0 1-.475-.125L4.42 21a1.236 1.236 0 0 0 .564.135c.434 0 .7-.215.7-.54.001-.357-.266-.469-.573-.587m3.526-.001c-.241-.092-.42-.168-.42-.407 0-.183.153-.332.42-.332a.82.82 0 0 1 .42.12l.084-.161a1.026 1.026 0 0 0-.519-.135c-.4 0-.624.223-.624.508 0 .34.252.46.544.57.256.094.446.182.446.42 0 .223-.194.365-.483.365a1.06 1.06 0 0 1-.474-.125l-.085.17a1.236 1.236 0 0 0 .564.134c.435 0 .7-.215.7-.54 0-.357-.266-.468-.573-.587m10.823-.916a2.07 2.07 0 0 0-.764.138V21.1h.4v-1.633a.954.954 0 0 1 .511-.029l.077-.332a1.27 1.27 0 0 0-.224-.015M18 18.318a.228.228 0 1 0 .247.228.238.238 0 0 0-.247-.228m-7.516 2.59a.35.35 0 0 1-.12.018.293.293 0 0 1-.325-.31V19.3h.445v-.17h-.445v-.569l-.208.081v.488h-.307v.17h.307v1.33a.455.455 0 0 0 .5.493.4.4 0 0 0 .153-.022zM14.7 19.1a.912.912 0 0 0-.636.241.77.77 0 0 0-.617-.241 1.65 1.65 0 0 0-.654.135V21.1H13v-1.746a1.15 1.15 0 0 1 .442-.08c.3 0 .519.15.519.391V21.1h.215v-1.628a.615.615 0 0 1 .486-.2.433.433 0 0 1 .471.449V21.1h.215v-1.388a.6.6 0 0 0-.648-.612m-3.13 0c-.515 0-.833.413-.833 1.019 0 .669.354 1.023.917 1.023a1.32 1.32 0 0 0 .613-.142l-.073-.168a1.15 1.15 0 0 1-.532.125.679.679 0 0 1-.715-.727l1.38-.2v-.117a.729.729 0 0 0-.757-.813m-.636.971c.011-.482.249-.8.636-.8.329 0 .547.2.551.629z"/></svg>

<?xml version="1.0" encoding="UTF-8"?>
<svg width="24px" fill="#44739e" height="24px" viewBox="0 0 24 24" version="1.1" xmlns="http://www.w3.org/2000/svg" xmlns:xlink="http://www.w3.org/1999/xlink">
            <path d="m 6.442,6.65 v 0 A 1.245,1.245 0 0 0 8.121,6 L 8.134,5.969 A 1.276,1.276 0 0 0 7.434,4.305 1.242,1.242 0 0 0 5.776,5.005 0.858,0.858 0 0 0 5.741,5.088 1.207,1.207 0 0 0 6.442,6.65 Z m -0.569,5.905 a 0.91928478,0.91928478 0 1 0 -0.717,1.693 v 0 a 0.917,0.917 0 0 0 1.2,-0.487 v 0 A 0.919,0.919 0 0 0 5.873,12.555 Z M 8.865,4.93 a 1.331,1.331 0 0 0 1.8,-0.694 L 10.68,4.201 A 1.366,1.366 0 0 0 9.932,2.419 1.334,1.334 0 0 0 8.154,3.169 C 8.142,3.196 8.13,3.224 8.119,3.252 A 1.3,1.3 0 0 0 8.865,4.93 Z M 4.9,9.018 4.937,9.034 A 1.175,1.175 0 0 0 6.476,8.4 L 6.491,8.365 A 1.2,1.2 0 0 0 5.831,6.806 L 5.8,6.8 A 1.176,1.176 0 0 0 4.272,7.461 C 4.263,7.48 4.255,7.499 4.247,7.519 A 1.157,1.157 0 0 0 4.9,9.018 Z M 8.81,11.055 8.8,11.023 A 1.038,1.038 0 0 0 7.475,10.389 L 7.43,10.405 a 1.016,1.016 0 0 0 -0.59,1.31 c 0.008,0.025 0.016,0.049 0.025,0.074 a 0.989,0.989 0 0 0 1.274,0.575 V 12.353 L 8.18,12.34 A 1.013,1.013 0 0 0 8.81,11.055 Z M 9.2,8.4 9.194,8.38 A 1.084,1.084 0 0 0 7.812,7.716 L 7.763,7.733 A 1.056,1.056 0 0 0 7.151,9.1 q 0.011,0.036 0.024,0.072 a 1.028,1.028 0 0 0 1.324,0.6 v 0 L 8.547,9.757 A 1.056,1.056 0 0 0 9.2,8.4 Z m 2.755,-3.835 v 0 a 1.346,1.346 0 0 0 1.818,-0.7 l 0.013,-0.032 a 1.382,1.382 0 0 0 -0.759,-1.8 1.341,1.341 0 0 0 -1.791,0.759 C 11.223,2.82 11.21,2.849 11.199,2.878 a 1.311,1.311 0 0 0 0.756,1.687 z M 12.749,16.3 a 0.723,0.723 0 0 0 0.573,0.033 h 0.006 l 0.035,-0.011 a 0.744,0.744 0 0 0 0.46,-0.946 L 13.816,15.355 A 0.762,0.762 0 0 0 12.844,14.89 l -0.038,0.013 a 0.742,0.742 0 0 0 -0.427,0.958 0.721,0.721 0 0 0 0.37,0.439 z M 5.854,11.123 a 1.127,1.127 0 1 0 -1.489,0.6 l 0.031,0.013 A 1.119,1.119 0 0 0 5.854,11.123 Z M 9.705,5.75 C 9.688,5.756 9.672,5.761 9.656,5.768 a 1.077,1.077 0 0 0 -0.625,1.39 q 0.01,0.036 0.024,0.072 a 1.049,1.049 0 0 0 1.35,0.612 l 0.05,-0.016 A 1.077,1.077 0 0 0 11.123,6.458 L 11.113,6.43 A 1.106,1.106 0 0 0 9.705,5.75 Z m 4.982,10.961 a 0.623,0.623 0 0 0 -0.006,1.152 v 0 a 0.608,0.608 0 0 0 0.477,0.006 0.626,0.626 0 0 0 0.342,-0.815 0.623,0.623 0 0 0 -0.813,-0.343 z m 0.689,-2.423 A 0.622,0.622 0 1 0 15.3,15.434 h 0.016 a 0.613,0.613 0 0 0 0.374,-0.782 0.625,0.625 0 0 0 -0.314,-0.364 z m 3.636,-0.614 a 0.344,0.344 0 0 0 0.024,-0.075 0.389,0.389 0 0 0 -0.3,-0.46 0.327,0.327 0 0 0 -0.076,-0.008 0.389,0.389 0 0 0 -0.151,0.749 0.381,0.381 0 0 0 0.506,-0.206 z m -1.604,1.537 a 0.5,0.5 0 0 0 -0.3,0.948 h 0.006 a 0.491,0.491 0 0 0 0.643,-0.262 0.55,0.55 0 0 0 0.03,-0.095 0.5,0.5 0 0 0 -0.379,-0.591 z m -6.439,0.924 0.038,-0.012 a 0.862,0.862 0 0 0 0.536,-1.1 l -0.006,-0.019 a 0.886,0.886 0 0 0 -1.128,-0.543 l -0.042,0.015 a 0.86,0.86 0 0 0 -0.5,1.111 0.839,0.839 0 0 0 1.1,0.549 z M 9.05,14.8 v 0 l 0.046,-0.015 a 0.971,0.971 0 0 0 0.6,-1.235 L 9.688,13.524 A 1,1 0 0 0 8.417,12.912 l -0.044,0.016 a 0.972,0.972 0 0 0 -0.564,1.254 c 0.006,0.021 0.013,0.041 0.02,0.061 A 0.947,0.947 0 0 0 9.05,14.8 Z M 7.326,14.951 7.293,14.938 a 0.758,0.758 0 0 0 -0.979,0.442 0.737,0.737 0 0 0 0.405,1 v 0 A 0.759,0.759 0 0 0 7.744,15.991 0.777,0.777 0 0 0 7.326,14.952 Z m 4.806,2.181 a 0.682,0.682 0 1 0 0.619,0.944 0.7,0.7 0 0 0 0.054,-0.259 0.679,0.679 0 0 0 -0.673,-0.685 z M 10.027,17.5 v 0 A 0.747,0.747 0 1 0 9.047,17.894 0.748,0.748 0 0 0 10.029,17.5 Z M 14.986,5.44 15.012,5.451 A 1.372,1.372 0 0 0 16.8,4.706 1.387,1.387 0 0 0 14.25,3.622 L 14.24,3.646 A 1.374,1.374 0 0 0 14.986,5.44 Z M 16.4,8.8 a 0.382,0.382 0 0 0 0.244,-0.49 v 0 A 0.389,0.389 0 1 0 16.4,8.8 Z m 0.353,0.67 a 0.38944608,0.38944608 0 1 0 0.252,0.737 0.352,0.352 0 0 0 0.132,-0.074 0.381,0.381 0 0 0 0.112,-0.415 V 9.712 A 0.389,0.389 0 0 0 16.753,9.47 Z m -0.198,4.359 a 0.5,0.5 0 0 0 -0.314,-0.943 h -0.012 a 0.5,0.5 0 1 0 0.326,0.939 z m 2.339,-4.895 a 0.387,0.387 0 0 0 0.53,-0.281 0.389,0.389 0 1 0 -0.53,0.281 z m 0.04,1.93 a 0.39,0.39 0 0 0 0.211,0.509 v 0 a 0.383,0.383 0 0 0 0.3,0.006 0.379,0.379 0 0 0 0.211,-0.21 0.389,0.389 0 1 0 -0.716,-0.3 z m -2.167,0.469 a 0.3892846,0.3892846 0 0 0 0.251,0.737 h 0.011 a 0.382,0.382 0 0 0 0.233,-0.487 v 0 a 0.389,0.389 0 0 0 -0.495,-0.25 z m 1.164,-4.648 a 0.383,0.383 0 0 0 0.3,0.006 0.377,0.377 0 0 0 0.21,-0.21 v 0 a 0.39,0.39 0 1 0 -0.51,0.209 z m -3.696,5.909 a 0.5,0.5 0 0 0 0.7,0.105 0.512,0.512 0 0 0 0.1,-0.7 0.5,0.5 0 1 0 -0.8,0.591 z m -0.956,0.355 a 0.5,0.5 0 1 0 0.591,0.8 0.5,0.5 0 0 0 0.1,-0.7 0.5,0.5 0 0 0 -0.691,-0.1 z m -2.165,0.167 a 0.729,0.729 0 0 0 0.146,-1.02 l -0.012,-0.017 a 0.749,0.749 0 0 0 -1.049,-0.141 l -0.022,0.017 a 0.728,0.728 0 0 0 -0.116,1.022 l 0.029,0.039 a 0.71,0.71 0 0 0 1,0.115 v 0 z m -0.303,-1.792 a 0.85,0.85 0 0 0 0.167,-1.191 L 10.966,10.116 A 0.875,0.875 0 0 0 9.741,9.949 L 9.707,9.975 a 0.851,0.851 0 0 0 -0.128,1.2 c 0.011,0.015 0.022,0.031 0.034,0.046 a 0.827,0.827 0 0 0 1.164,0.131 z M 13.817,5.984 13.808,5.958 A 1.124,1.124 0 0 0 12.377,5.266 l -0.049,0.017 a 1.093,1.093 0 0 0 -0.635,1.411 q 0.01,0.036 0.024,0.072 a 1.064,1.064 0 0 0 1.37,0.624 l 0.047,-0.015 a 1.1,1.1 0 0 0 0.683,-1.391 z m -1.399,7.961 a 0.622,0.622 0 1 0 -0.87,-0.13 0.626,0.626 0 0 0 0.87,0.13 z M 13.2,8.561 a 0.31100643,0.31100643 0 1 0 0.37,0.5 A 0.321,0.321 0 0 0 13.635,8.625 0.311,0.311 0 0 0 13.2,8.561 Z M 11.977,9.623 12.011,9.598 A 0.9,0.9 0 0 0 12.19,8.34 L 12.175,8.321 A 0.92,0.92 0 0 0 10.884,8.146 l -0.047,0.035 a 0.9,0.9 0 0 0 -0.125,1.263 c 0.012,0.016 0.024,0.033 0.037,0.048 a 0.873,0.873 0 0 0 1.228,0.135 z m 2.676,0.309 a 0.322,0.322 0 0 0 0.063,-0.435 v 0 a 0.312,0.312 0 1 0 -0.062,0.436 z m 0.554,0.752 v 0 a 0.373,0.373 0 1 0 -0.077,0.521 0.39,0.39 0 0 0 0.077,-0.521 z M 15.343,7.6 h 0.008 A 0.383,0.383 0 0 0 15.589,7.113 0.39,0.39 0 1 0 15.343,7.606 Z M 6.916,20.654 A 2.381,2.381 0 0 0 6.843,20.917 H 6.836 A 2,2 0 0 0 6.767,20.654 L 6.226,19.13 H 5.992 l 0.742,1.97 -0.3,0.786 h 0.223 l 1.03,-2.755 h -0.23 z m 10.892001,-1.524001 h 0.403 v 1.969 h -0.403 z M 16.574,19.091 a 1.84,1.84 0 0 0 -0.687,0.139 l 0.1,0.274 a 1.46,1.46 0 0 1 0.545,-0.121 c 0.252,0 0.416,0.088 0.416,0.336 v 0.126 c -0.595,0.031 -1.18,0.131 -1.18,0.679 0,0.387 0.285,0.617 0.851,0.617 A 1.726,1.726 0 0 0 17.33,21 v 0 -1.24 c 0,-0.486 -0.285,-0.669 -0.756,-0.669 z M 16.95,20.8 v 0 a 1.018,1.018 0 0 1 -0.34,0.051 c -0.3,0 -0.464,-0.128 -0.464,-0.336 0,-0.351 0.4,-0.384 0.8,-0.407 z M 5.111,20.008 C 4.87,19.916 4.691,19.84 4.691,19.601 c 0,-0.183 0.154,-0.332 0.42,-0.332 a 0.807,0.807 0 0 1 0.42,0.12 L 5.615,19.228 A 1.008,1.008 0 0 0 5.1,19.1 c -0.4,0 -0.626,0.223 -0.626,0.507 0,0.34 0.252,0.461 0.544,0.57 0.256,0.094 0.446,0.183 0.446,0.42 0,0.237 -0.194,0.365 -0.482,0.365 A 1.063,1.063 0 0 1 4.507,20.837 L 4.42,21 a 1.236,1.236 0 0 0 0.564,0.135 c 0.434,0 0.7,-0.215 0.7,-0.54 v 0 C 5.685,20.238 5.418,20.126 5.111,20.008 Z M 8.637,20.007 C 8.396,19.915 8.217,19.839 8.217,19.6 c 0,-0.183 0.153,-0.332 0.42,-0.332 a 0.821,0.821 0 0 1 0.42,0.12 L 9.141,19.227 A 1.026,1.026 0 0 0 8.622,19.092 c -0.4,0 -0.624,0.223 -0.624,0.508 0,0.34 0.252,0.46 0.544,0.57 0.256,0.094 0.446,0.182 0.446,0.42 0,0.223 -0.194,0.365 -0.483,0.365 A 1.063,1.063 0 0 1 8.031,20.83 L 7.946,21 a 1.236,1.236 0 0 0 0.564,0.134 c 0.435,0 0.7,-0.215 0.7,-0.54 v 0 c 0,-0.357 -0.266,-0.468 -0.573,-0.587 z M 19.46,19.091 a 2.074,2.074 0 0 0 -0.764,0.138 V 21.1 h 0.4 v -1.633 a 0.954,0.954 0 0 1 0.511,-0.029 l 0.077,-0.332 v 0 A 1.268,1.268 0 0 0 19.46,19.091 Z M 18,18.318 A 0.228,0.228 0 1 0 18.247,18.546 0.238,0.238 0 0 0 18,18.318 Z m -7.516,2.59 a 0.35,0.35 0 0 1 -0.12,0.018 0.293,0.293 0 0 1 -0.325,-0.31 V 19.3 h 0.445 V 19.13 H 10.039 V 18.561 L 9.831,18.642 V 19.13 H 9.524 v 0.17 h 0.307 v 1.33 a 0.455,0.455 0 0 0 0.5,0.493 0.4,0.4 0 0 0 0.153,-0.022 v 0 z M 14.7,19.1 A 0.912,0.912 0 0 0 14.064,19.341 0.77,0.77 0 0 0 13.447,19.1 1.654,1.654 0 0 0 12.793,19.235 V 21.1 H 13 v -1.746 a 1.154,1.154 0 0 1 0.442,-0.08 c 0.3,0 0.519,0.15 0.519,0.391 V 21.1 h 0.215 v -1.628 a 0.615,0.615 0 0 1 0.486,-0.2 0.433,0.433 0 0 1 0.471,0.449 V 21.1 h 0.215 V 19.712 A 0.6,0.6 0 0 0 14.7,19.1 Z m -3.13,0 c -0.515,0 -0.833,0.413 -0.833,1.019 0,0.669 0.354,1.023 0.917,1.023 A 1.322,1.322 0 0 0 12.267,21 l -0.073,-0.168 a 1.151,1.151 0 0 1 -0.532,0.125 0.679,0.679 0 0 1 -0.715,-0.727 l 1.38,-0.2 c 0,-0.044 0,-0.081 0,-0.117 v 0 A 0.729,0.729 0 0 0 11.57,19.1 Z m -0.636,0.971 c 0.011,-0.482 0.249,-0.8 0.636,-0.8 0.329,0 0.547,0.2 0.551,0.629 z"/>

</svg>
